assets/img/braze_icons/arrow-circle-broken-right.svg

<svg fill="none" height="24" viewBox="0 0 24 24" width="24" xmlns="http://www.w3.org/2000/svg"><path d="m1.33989 14.7243c-.12718-.4992-.19077-.7488-.10893-1.0166.06532-.2137.24602-.4462.43699-.5623.23931-.1454.53537-.1454 1.12749-.1454h10.79026l-2.2929 2.2929c-.3905.3905-.3905 1.0237 0 1.4142s1.0237.3905 1.4142 0l4-4c.3906-.3905.3906-1.0237 0-1.4142l-4-4.00001c-.3905-.39052-1.0237-.39052-1.4142 0-.3905.39053-.3905 1.02369 0 1.41422l2.2929 2.29289h-10.79026c-.59212 0-.88818 0-1.12749-.1454-.19097-.1161-.37167-.3486-.43699-.5623-.08184-.2678-.01825-.51741.10893-1.01656 1.21214-4.75743 5.52522-8.27574 10.66001-8.27574 6.0752 0 11 4.92487 11 11 0 6.0751-4.9248 11-11 11-5.13479 0-9.44787-3.5183-10.66001-8.2757z" fill="#801ed7"/></svg>

<svg width="24" height="24" viewBox="0 0 24 24" fill="none" xmlns="http://www.w3.org/2000/svg">
<path d="M1.33989 14.7243C1.21271 14.2251 1.14912 13.9755 1.23096 13.7077C1.29628 13.494 1.47698 13.2615 1.66795 13.1454C1.90726 13 2.20332 13 2.79544 13L13.5857 13L11.2928 15.2929C10.9023 15.6834 10.9023 16.3166 11.2928 16.7071C11.6833 17.0976 12.3165 17.0976 12.707 16.7071L16.707 12.7071C17.0976 12.3166 17.0976 11.6834 16.707 11.2929L12.707 7.29289C12.3165 6.90237 11.6833 6.90237 11.2928 7.29289C10.9023 7.68342 10.9023 8.31658 11.2928 8.70711L13.5857 11L2.79544 11C2.20332 11 1.90726 11 1.66795 10.8546C1.47698 10.7385 1.29628 10.506 1.23096 10.2923C1.14912 10.0245 1.21271 9.77489 1.33989 9.27574C2.55203 4.51831 6.86511 1 11.9999 1C18.0751 1 22.9999 5.92487 22.9999 12C22.9999 18.0751 18.0751 23 11.9999 23C6.86511 23 2.55203 19.4817 1.33989 14.7243Z" fill="#801ED7"/>
</svg>
